X: 15
T:Lilt From Home (#125), A
M:6/8
L:1/8
S:Capt. F. O'Neill
K:G
A/2G/2|EAA AGA|BAB G2 A|Bee dBA|"tr"BAB GED|
EAA AGA|BAB G2 A|Bee dBG|BAA A2:|
|:d|gfg edB|BAA A2 B|GBG dBA|BAB G2 d|
gfg edB|BAB G2 A|Bee dBG|BAA A2:||

